client/src/assets/Customerdetails.svg

<svg width="16" height="16" viewBox="0 0 16 16" fill="none" xmlns="http://www.w3.org/2000/svg">
<path d="M8 2C9.1 2 10 2.9 10 4C10 5.1 9.1 6 8 6C6.9 6 6 5.1 6 4C6 2.9 6.9 2 8 2ZM8 12C10.7 12 13.8 13.29 14 14H2C2.23 13.28 5.31 12 8 12ZM8 0C5.79 0 4 1.79 4 4C4 6.21 5.79 8 8 8C10.21 8 12 6.21 12 4C12 1.79 10.21 0 8 0ZM8 10C5.33 10 0 11.34 0 14V16H16V14C16 11.34 10.67 10 8 10Z" fill="black"/>
</svg>

<?xml version="1.0" encoding="utf-8"?>
<!-- Generator: Adobe Illustrator 25.2.3, SVG Export Plug-In . SVG Version: 6.00 Build 0)  -->
<svg version="1.1" id="Layer_1" xmlns="http://www.w3.org/2000/svg" xmlns:xlink="http://www.w3.org/1999/xlink" x="0px" y="0px"
	 viewBox="0 0 16 16" style="enable-background:new 0 0 16 16;" xml:space="preserve">
<style type="text/css">
	.st0{fill:#FBBC05;}
</style>
<path class="st0" d="M8,2c1.1,0,2,0.9,2,2S9.1,6,8,6S6,5.1,6,4S6.9,2,8,2z M8,12c2.7,0,5.8,1.3,6,2H2C2.2,13.3,5.3,12,8,12z M8,0
	C5.8,0,4,1.8,4,4s1.8,4,4,4s4-1.8,4-4S10.2,0,8,0z M8,10c-2.7,0-8,1.3-8,4v2h16v-2C16,11.3,10.7,10,8,10z"/>
</svg>
